X:1
T:Title
%%score [ 1 2 3 4 ]
L:1/8
Q:1/4=152
M:none
K:F
V:1 treble nm="CANTUS"
V:2 treble nm="ALTUS"
V:3 treble-8 nm="TENOR"
V:4 bass nm="BASSUS"
V:1
 F8 G8 F8 B8 B8 A8 G8 !fermata!A8 | F8 G8 A8 B8 A8 G8 ^F8 !fermata!G8 | %2
w: O sa- lu- ta- ris Ho- sti- a,|quae cae- li pan- dis o- sti- um.|
w: U- ni tri- no- que Do- mi- no|sit sem- pi- ter- na glo- ri- a,|
 A8 B8 A8 G8 F8 G8 G8 !fermata!D8 | F8 E8 F8 B8 A8 G8 ^F8 !fermata!G8 |] %4
w: Bel- la pre- munt ho- sti- li- a,|da ro- bur, fer au- xi- li- um.|
w: Qui vi- tam si- ne ter- mi- no|no- bis do- net in pa- tri- a.|
V:2
 D8 D8 D8 G8 F8 F8 D8 !fermata!D8 | D8 D8 F8 G8 F8 D8 D8 !fermata!D8 | %2
w: O sa- lu- ta- ris Ho- sti- a,|quae cae- li pan- dis o- sti- um.|
w: U- ni tri- no- que Do- mi- no|sit sem- pi- ter- na glo- ri- a,|
 F8 F8 F8 C8 D8 G,8 G,8 !fermata!B,8 | A,8 C8 (C4 F4) (D4 E4) F8 C8 D8 !fermata!D8 |] %4
w: Bel- la pre- munt ho- sti- li- a,|da ro- bur, * fer * au- xi- li- um.|
w: Qui vi- tam si- ne ter- mi- no|no- bis do- * net * in pa- tri- a.|
V:3
 A8 B8 A8 G8 d8 c8 B8 !fermata!A8 | A8 B8 A8 G8 c8 B8 A8 !fermata!G8 | %2
w: O sa- lu- ta- ris Ho- sti- a,|quae cae- li pan- dis o- sti- um.|
w: U- ni tri- no- que Do- mi- no|sit sem- pi- ter- na glo- ri- a,|
 c8 d8 c8 G8 A8 G8 E8 !fermata!F8 | d8 G8 A8 B8 c8 G8 A8 !fermata!G8 |] %4
w: Bel- la pre- munt ho- sti- li- a,|da ro- bur, fer au- xi- li- um.|
w: Qui vi- tam si- ne ter- mi- no|no- bis do- net in pa- tri- a.|
V:4
 D,8 G,,8 D,8 _E,8 B,,8 F,8 G,8 !fermata!D,8 | D,8 G,8 D,8 G,,8 F,8 G,8 D,8 !fermata!G,,8 | %2
w: O sa- lu- ta- ris Ho- sti- a,|quae cae- li pan- dis o- sti- um.|
w: U- ni tri- no- que Do- mi- no|sit sem- pi- ter- na glo- ri- a,|
 F,8 B,,8 F,8 E,8 D,8 _E,8 C,8 !fermata!B,,8 | D,8 C,8 F,8 G,8 F,8 _E,8 D,8 !fermata!G,,8 |] %4
w: Bel- la pre- munt ho- sti- li- a,|da ro- bur, fer au- xi- li- um.|
w: Qui vi- tam si- ne ter- mi- no|no- bis do- net in pa- tri- a.|

